src/pos-icons/rounded-corner.svg

<svg height="24" viewBox="0 0 24 24" width="24" xmlns="http://www.w3.org/2000/svg"><path d="m19 19h2v2h-2zm0-2h2v-2h-2zm-16-4h2v-2h-2zm0 4h2v-2h-2zm0-8h2v-2h-2zm0-4h2v-2h-2zm4 0h2v-2h-2zm8 16h2v-2h-2zm-4 0h2v-2h-2zm4 0h2v-2h-2zm-8 0h2v-2h-2zm-4 0h2v-2h-2zm18-13a5 5 0 0 0 -5-5h-5v2h5a3 3 0 0 1 3 3v5h2z"/></svg>

<?xml version="1.0" encoding="UTF-8"?><!DOCTYPE svg PUBLIC "-//W3C//DTD SVG 1.1//EN" "http://www.w3.org/Graphics/SVG/1.1/DTD/svg11.dtd"><svg xmlns="http://www.w3.org/2000/svg" xmlns:xlink="http://www.w3.org/1999/xlink" version="1.1" id="mdi-rounded-corner" width="24" height="24" viewBox="0 0 24 24"><path d="M19,19H21V21H19V19M19,17H21V15H19V17M3,13H5V11H3V13M3,17H5V15H3V17M3,9H5V7H3V9M3,5H5V3H3V5M7,5H9V3H7V5M15,21H17V19H15V21M11,21H13V19H11V21M15,21H17V19H15V21M7,21H9V19H7V21M3,21H5V19H3V21M21,8A5,5 0 0,0 16,3H11V5H16A3,3 0 0,1 19,8V13H21V8Z" /></svg>
